icons/oil-line.svg

<svg xmlns="http://www.w3.org/2000/svg" width="24" height="24" fill="none"><g clip-path="url(#a)"><g><path fill="#121212" d="M9.07 7L6 11.606V20H18V7H9.07ZM8 5H19C19.2652 5 19.5196 5.10536 19.7071 5.29289C19.8946 5.48043 20 5.73478 20 6V21C20 21.2652 19.8946 21.5196 19.7071 21.7071C19.5196 21.8946 19.2652 22 19 22H5C4.73478 22 4.48043 21.8946 4.29289 21.7071C4.10536 21.5196 4 21.2652 4 21V11L8 5ZM13 1H18C18.2652 1 18.5196 1.10536 18.7071 1.29289C18.8946 1.48043 19 1.73478 19 2V4H12V2C12 1.73478 12.1054 1.48043 12.2929 1.29289C12.4804 1.10536 12.7348 1 13 1ZM8 12H10V18H8V12Z"/></g></g><defs><clipPath id="a"><rect width="24" height="24" fill="white"/></clipPath></defs></svg>

<svg width="24" height="24" fill="none" xmlns="http://www.w3.org/2000/svg"><g clip-path="url(#a)"><path d="M9.07 7 6 11.606V20h12V7H9.07ZM8 5h11a1 1 0 0 1 1 1v15a1 1 0 0 1-1 1H5a1 1 0 0 1-1-1V11l4-6Zm5-4h5a1 1 0 0 1 1 1v2h-7V2a1 1 0 0 1 1-1ZM8 12h2v6H8v-6Z" /></g><defs><clipPath id="a"><path fill="#fff" d="M0 0h24v24H0z"/></clipPath></defs></svg>
